X: 29670
T: Norwegian, The
R: waltz
M: 3/4
K: Gmajor
E DC|B,2D3G|B2d3e|d2c2A2|E4(3EFE|
D2F2AB|c2B2A2|G2B2de|d3d ef|
gd dB BG|GD DB, B,A,|A,2C3E|G3F FE|
D2d3^c|=cEE2F2|G2GF GA|G3:|
|:d ef|g2d3B|g3g fg|a2e3c|a3a bc'|
d'2c'3a|f2d2cA|G2B2de|d3d ef|
g2d3B|g3g fg|a2e3c|a3a bc'|
d'2c'3a|f2d2ba|g3f ga|g3:|

